X:949
T:Kilfenora Reel, The
R:reel
H:Cf. Willafjord #948
Z:id:hn-reel-949
M:C|
L:1/8
K:D
A2FA A2FA | B2GB B2GB | A2FA A2FA | EFGA BcdB |
A2FA A2FA | B2GB B2GB | AdcB AGFE | DDCE D2 :|
|: Adfd Adfd | Acec Acec | Adfd Adfd | cABc d2cB |
Adfd Adfd | Acec Acec | d2cB AGFE | DDCE D2 ||

